symbols/web/punch_clock/materialsymbolsoutlined/punch_clock_grad200_40px.svg

<svg xmlns="http://www.w3.org/2000/svg" height="40" width="40"><path d="M8.167 37q-1.417 0-2.459-1.042-1.041-1.041-1.041-2.458V13.125q0-1.375 1.041-2.437Q6.75 9.625 8.167 9.625h1.75V1.292h20.166v8.333h1.792q1.375 0 2.437 1.063 1.063 1.062 1.063 2.437V33.5q0 1.417-1.063 2.458Q33.25 37 31.875 37Zm5.25-27.375h13.166V4.792H13.417ZM8.167 33.5h23.708V13.125H8.167V33.5ZM20 31.792q-3.5 0-5.979-2.48-2.479-2.479-2.479-5.979 0-3.541 2.479-6Q16.5 14.875 20 14.875q3.542 0 6 2.458 2.458 2.459 2.458 6 0 3.5-2.458 5.979-2.458 2.48-6 2.48Zm0-2.75q2.375 0 4.042-1.667 1.666-1.667 1.666-4.042t-1.666-4.041Q22.375 17.625 20 17.625t-4.042 1.667q-1.666 1.666-1.666 4.041 0 2.375 1.666 4.042 1.667 1.667 4.042 1.667Zm1.917-2.25-3.042-3.042v-4.875h2.25v4.042l2.333 2.333ZM20 23.333Z"/></svg>

<svg xmlns="http://www.w3.org/2000/svg" height="40" width="40"><path d="M8.167 37Q6.75 37 5.708 35.958Q4.667 34.917 4.667 33.5V13.125Q4.667 11.75 5.708 10.688Q6.75 9.625 8.167 9.625H9.917V1.292H30.083V9.625H31.875Q33.25 9.625 34.312 10.688Q35.375 11.75 35.375 13.125V33.5Q35.375 34.917 34.312 35.958Q33.25 37 31.875 37ZM13.417 9.625H26.583V4.792H13.417ZM8.167 33.5H31.875Q31.875 33.5 31.875 33.5Q31.875 33.5 31.875 33.5V13.125Q31.875 13.125 31.875 13.125Q31.875 13.125 31.875 13.125H8.167Q8.167 13.125 8.167 13.125Q8.167 13.125 8.167 13.125V33.5Q8.167 33.5 8.167 33.5Q8.167 33.5 8.167 33.5ZM20 31.792Q16.5 31.792 14.021 29.312Q11.542 26.833 11.542 23.333Q11.542 19.792 14.021 17.333Q16.5 14.875 20 14.875Q23.542 14.875 26 17.333Q28.458 19.792 28.458 23.333Q28.458 26.833 26 29.312Q23.542 31.792 20 31.792ZM20 29.042Q22.375 29.042 24.042 27.375Q25.708 25.708 25.708 23.333Q25.708 20.958 24.042 19.292Q22.375 17.625 20 17.625Q17.625 17.625 15.958 19.292Q14.292 20.958 14.292 23.333Q14.292 25.708 15.958 27.375Q17.625 29.042 20 29.042ZM21.917 26.792 18.875 23.75V18.875H21.125V22.917L23.458 25.25ZM20 23.333Q20 23.333 20 23.333Q20 23.333 20 23.333Q20 23.333 20 23.333Q20 23.333 20 23.333Q20 23.333 20 23.333Q20 23.333 20 23.333Q20 23.333 20 23.333Q20 23.333 20 23.333Z"/></svg>
